source/images/icons/icon-editorial/soleil.svg

<?xml version="1.0" encoding="UTF-8"?>
<svg width="80px" height="80px" viewBox="0 0 80 80" version="1.1" xmlns="http://www.w3.org/2000/svg" xmlns:xlink="http://www.w3.org/1999/xlink">
    <!-- Generator: Sketch 55.2 (78181) - https://sketchapp.com -->
    <title>Illustrative Icons/Soleil</title>
    <desc>Created with Sketch.</desc>
    <g id="Illustrative-Icons/Soleil" stroke="none" stroke-width="1" fill="none" fill-rule="evenodd">
        <path d="M40,75.0000001 C39.0795255,75.0000001 38.3333334,74.253808 38.3333334,73.3333334 L38.3333334,63.3333334 C38.3333334,62.4128588 39.0795255,61.6666667 40,61.6666667 C40.9204746,61.6666667 41.6666667,62.4128588 41.6666667,63.3333334 L41.6666667,73.3333334 C41.6666667,74.253808 40.9204746,75.0000001 40,75.0000001 Z M16.6666667,41.6666667 L6.66666667,41.6666667 C5.74619208,41.6666667 5,40.9204746 5,40 C5,39.0795255 5.74619208,38.3333334 6.66666667,38.3333334 L16.6666667,38.3333334 C17.5871413,38.3333334 18.3333334,39.0795255 18.3333334,40 C18.3333334,40.9204746 17.5871413,41.6666667 16.6666667,41.6666667 Z M73.3333334,41.6666667 L63.3333334,41.6666667 C62.4128588,41.6666667 61.6666667,40.9204746 61.6666667,40 C61.6666667,39.0795255 62.4128588,38.3333334 63.3333334,38.3333334 L73.3333334,38.3333334 C74.253808,38.3333334 75.0000001,39.0795255 75.0000001,40 C75.0000001,40.9204746 74.253808,41.6666667 73.3333334,41.6666667 Z M63.3333334,65.0000001 C62.891342,65.0000001 62.467488,64.824249 62.1550001,64.5116667 L55.4883334,57.8450001 C54.856713,57.1910353 54.8657461,56.1515254 55.5086358,55.5086358 C56.1515254,54.8657461 57.1910353,54.856713 57.8450001,55.4883334 L64.5116667,62.1550001 C64.9881799,62.6316572 65.1307033,63.3483944 64.8727967,63.971091 C64.6148902,64.5937876 64.0073266,64.9998562 63.3333334,65.0000001 Z M23.3333334,25 C22.891342,25 22.4674879,24.824249 22.155,24.5116667 L15.4883333,17.845 C14.856713,17.1910352 14.8657461,16.1515254 15.5086357,15.5086357 C16.1515254,14.8657461 17.1910352,14.856713 17.845,15.4883333 L24.5116667,22.155 C24.9881799,22.6316571 25.1307032,23.3483944 24.8727967,23.971091 C24.6148901,24.5937875 24.0073265,24.9998561 23.3333334,25 L23.3333334,25 Z M56.6666667,25 C55.9926736,24.9998561 55.38511,24.5937875 55.1272034,23.971091 C54.8692969,23.3483944 55.0118202,22.6316571 55.4883334,22.155 L62.1550001,15.4883333 C62.8089649,14.856713 63.8484747,14.8657461 64.4913644,15.5086357 C65.134254,16.1515254 65.1432871,17.1910352 64.5116667,17.845 L57.8450001,24.5116667 C57.5325122,24.824249 57.1086581,25 56.6666667,25 L56.6666667,25 Z M16.6666667,65.0000001 C15.9926735,64.9998562 15.3851099,64.5937876 15.1272034,63.971091 C14.8692968,63.3483944 15.0118202,62.6316572 15.4883333,62.1550001 L22.155,55.4883334 C22.8089648,54.856713 23.8484747,54.8657461 24.4913643,55.5086358 C25.134254,56.1515254 25.143287,57.1910353 24.5116667,57.8450001 L17.845,64.5116667 C17.5325121,64.824249 17.108658,65.0000001 16.6666667,65.0000001 L16.6666667,65.0000001 Z M40,58.3250001 C33.9228142,58.3250001 28.2403854,55.3142209 24.828192,50.2853915 C21.4159986,45.2565622 20.7175369,38.8636647 22.9633334,33.2166667 C23.3159306,32.3809814 24.2720707,31.9806841 25.1148777,32.3159018 C25.9576848,32.6511194 26.3776944,33.5987659 26.06,34.4483334 C23.016141,42.099989 26.7100604,50.7748237 34.3357459,53.8831723 C41.9614315,56.991521 50.6671425,53.3709694 53.8397592,45.7717974 C57.0123759,38.1726254 53.4654502,29.4366587 45.8933334,26.2 C44.0431601,25.3832159 42.0389425,24.9739599 40.0166667,25 C39.5717586,25.0044493 39.1435411,24.8308208 38.8273665,24.5177766 C38.5111919,24.2047324 38.3333111,23.7782637 38.3333334,23.3333334 L38.3333334,6.66666667 C38.3333334,5.74619208 39.0795255,5 40,5 C40.9204746,5 41.6666667,5.74619208 41.6666667,6.66666667 L41.6666667,21.7283334 C43.5747449,21.8966695 45.4431825,22.3716578 47.2000001,23.135 C55.2042708,26.5579504 59.6976573,35.1378353 57.9526412,43.6666018 C56.207625,52.1953683 48.7054537,58.3209191 40,58.3250001 L40,58.3250001 Z M28.3333334,30 C29.2538079,30 30,29.2538079 30,28.3333334 C30,27.4128588 29.2538079,26.6666667 28.3333334,26.6666667 C27.4128588,26.6666667 26.6666667,27.4128588 26.6666667,28.3333334 C26.6666667,29.2538079 27.4128588,30 28.3333334,30 Z" id="Shape-color" fill="#ADB5BD"></path>
    </g>
</svg>

<svg width="80" height="80">
    <title>
        Illustrative Icons/Soleil
    </title>
    <path d="M40 75c-.92 0-1.667-.746-1.667-1.667v-10a1.667 1.667 0 1 1 3.334 0v10c0 .92-.747 1.667-1.667 1.667zM16.667 41.667h-10a1.667 1.667 0 0 1 0-3.334h10a1.667 1.667 0 1 1 0 3.334zm56.666 0h-10a1.667 1.667 0 0 1 0-3.334h10a1.667 1.667 0 1 1 0 3.334zM63.333 65c-.442 0-.866-.176-1.178-.488l-6.667-6.667a1.667 1.667 0 0 1 2.357-2.357l6.667 6.667A1.667 1.667 0 0 1 63.333 65zm-40-40c-.442 0-.866-.176-1.178-.488l-6.667-6.667a1.667 1.667 0 0 1 2.357-2.357l6.667 6.667A1.667 1.667 0 0 1 23.333 25zm33.334 0a1.667 1.667 0 0 1-1.179-2.845l6.667-6.667a1.667 1.667 0 0 1 2.357 2.357l-6.667 6.667a1.666 1.666 0 0 1-1.178.488zm-40 40a1.667 1.667 0 0 1-1.179-2.845l6.667-6.667a1.667 1.667 0 0 1 2.357 2.357l-6.667 6.667a1.666 1.666 0 0 1-1.178.488zM40 58.325a18.334 18.334 0 0 1-17.037-25.108 1.667 1.667 0 0 1 3.097 1.231c-3.044 7.652.65 16.327 8.276 19.435 7.625 3.109 16.331-.512 19.504-8.111 3.172-7.6-.375-16.335-7.947-19.572a14.102 14.102 0 0 0-5.876-1.2 1.667 1.667 0 0 1-1.684-1.667V6.667a1.667 1.667 0 1 1 3.334 0v15.061c1.908.169 3.776.644 5.533 1.407a18.333 18.333 0 0 1-7.2 35.19zM28.333 30a1.667 1.667 0 1 0 0-3.333 1.667 1.667 0 0 0 0 3.333z" fill="#ADB5BD" fill-rule="evenodd"/>
</svg>
